X:0141
T:The Major
M:6/8
L:1/8
Q:3/8=120
I: :: :: ::
Z:Jack Campin * www.campin.me.uk * 2009
K:Hp
cBA ABA|ecA Bcd|cBA ABA|dBG Bcd:|
c2e efe|efg aga|c2e efg|fdB Bcd:|
cBA a3 |ecA Bcd|cBA gfg|dBG Bcd:|
<end>
<start>
